!!!!SEGMENT: Wil2034-Domine_Jesu_Christe_fili_dei.krn
!!!id: Wil2034
!!!AGN: Motet
!!!SCT: Zenck (1950)
!!!voices: 5
!!!COM: Adrian Willaert
!!!OTL: Domine Jesu Christe, fili dei
**kern	**kern	**kern	**kern	**kern
*part5	*part4	*part3	*part2	*part1
*staff5	*staff4	*staff3	*staff2	*staff1
*I"Bassus	*I"Tenor II	*I"Tenor I	*I"Altus	*I"Superius
*I'B	*I'T. II	*I'T. I	*I'A	*I'S
*clefF4	*clefGv2	*clefGv2	*clefGv2	*clefG2
*k[b-]	*k[b-]	*k[b-]	*k[b-]	*k[b-]
*F:	*F:	*F:	*F:	*F:
*M2/1	*M2/1	*M2/1	*M2/1	*M2/1
*met(C|)	*met(C|)	*met(C|)	*met(C|)	*met(C|)
!!section: Prima pars: Domine Jesu Christe, fili dei
!!!OMD: Prima pars: Domine Jesu Christe, fili dei
=1	=1	=1	=1	=1
0r	0r	0r	0r	1.f
.	.	.	.	2f
=2	=2	=2	=2	=2
0r	0r	0r	0r	1a
.	.	.	.	[1g
=3	=3	=3	=3	=3
0r	0r	1.c	0r	1g]
.	.	.	.	1e
.	.	2c	.	.
=4	=4	=4	=4	=4
0r	0r	1d	0r	1f
.	.	[1c	.	1g
=5	=5	=5	=5	=5
0r	0r	1c]	0r	1e
.	.	1A	.	2e
.	.	.	.	[2f
=6	=6	=6	=6	=6
0r	0r	1B-y	0r	2f]
.	.	.	.	2d
.	.	1c	.	1e
=7	=7	=7	=7	=7
0r	1.F	2r	1r	2c
.	.	2A	.	2.cc
.	.	2A	[1f	.
.	.	.	.	4b-y
.	2F	[2c	.	[2a
=8	=8	=8	=8	=8
0r	1A	2c]	2f]	4a]
.	.	.	.	4g
.	.	2c	2f	1cc
.	[1G	1d	1g	.
.	.	.	.	2bni
=9	=9	=9	=9	=9
1.C	1G]	2.c	1e	0cc
.	.	8B-yL	.	.
.	.	8AJ	.	.
.	1E	2G	1g	.
2C	.	(2c	.	.
=10	=10	=10	=10	=10
1D	1F	4c)	1f	1r
.	.	4Bni	.	.
.	.	4Bni	.	.
.	.	8AL	.	.
.	.	8BniJ	.	.
[1C	1G	[1c	1e	2r
.	.	.	.	[2g
=11	=11	=11	=11	=11
1C]	1E	1c]	2r	2g]
.	.	.	1c	2g
1AA	2E	1r	.	2a
.	[2F	.	2c	2a
=12	=12	=12	=12	=12
1BB-y	2F]	1r	2d	1f
.	2D	.	2d	.
1C	1E	1G	[1c	[1e
=13	=13	=13	=13	=13
2r	1C	2G	1c]	0e_
2AA	.	1A	.	.
2AA	2r	.	2.c	.
[2C	2c	2G	.	.
.	.	.	4B-y	.
=14	=14	=14	=14	=14
2C]	2c	1E	2G	1e]
2C	2c	.	2.A	.
1D	2A	1F	.	1r
.	.	.	4F	.
.	2B-y	.	[2f	.
=15	=15	=15	=15	=15
0C	1c	1G	2f]	2r
.	.	.	4e	2g
.	.	.	4d	.
.	2G	2.c	[1e	2g
.	2c	.	.	2g
.	.	4B-y	.	.
=16	=16	=16	=16	=16
1r	2c	2A	1e]	2a
.	2B-y	2G	.	2b-y
2r	2.A	1F	1r	2.cc
2F	.	.	.	.
.	4B-y	.	.	4b-y
=17	=17	=17	=17	=17
2F	2c	0r	2r	4a
.	.	.	.	4g
2F	2c	.	2f	2.a
2D	1B-y	.	2f	.
.	.	.	.	8gL
.	.	.	.	8fJ
2E	.	.	2e	2g
=18	=18	=18	=18	=18
1F	1A	2r	2c	1a
.	.	2c	2f	.
1C	1G	2c	1e	2r
.	.	2c	.	2cc
=19	=19	=19	=19	=19
0r	2G	2d	2d	2b-y
.	2G	2e	2B-y	2g
.	1F	2.f	2c	2a
.	.	.	2c	2a
.	.	4e	.	.
=20	=20	=20	=20	=20
0r	1G	4d	1g	1b-y
.	.	4c	.	.
.	.	2.d	.	.
.	1A	.	1e	[1a
.	.	8c#iL	.	.
.	.	8BniJ	.	.
.	.	2c#i	.	.
=21	=21	=21	=21	=21
1D	2r	1d	1f	1a]
.	2A	.	.	.
2F	2A	2r	2f	1a
2F	2A	2c	2f	.
=22	=22	=22	=22	=22
2G	2B-y	2B-y	2d	2g
2E	2c	2G	2e	2g
1D	2d	2A	2A	2f
.	[2d	2A	[2f	[2a
=23	=23	=23	=23	=23
1G	2d]	1B-y	4f]	4a]
.	.	.	8eL	8gL
.	.	.	8dJ	8fJ
.	4c	.	2e	2g
.	4B-y	.	.	.
2F	1c	1A	[1f	1a
2F	.	.	.	.
=24	=24	=24	=24	=24
2.D	2F	1A	1f]	2r
.	2F	.	.	2f
4E	.	.	.	.
2F	2c	2A	1r	2f
2C	2c	2G	.	2e
=25	=25	=25	=25	=25
1D	2A	1F	0r	2d
.	2B-y	.	.	2.f
1C	2c	1G	.	.
.	.	.	.	4e
.	[2c	.	.	4e
.	.	.	.	8dL
.	.	.	.	8eJ
=26	=26	=26	=26	=26
1F	2c]	1A	0r	[0f
.	2c	.	.	.
2r	1B-y	1d	.	.
2BB-y	.	.	.	.
=27	=27	=27	=27	=27
2F	2A	1c	0r	1f]
2F	2A	.	.	.
2D	2B-y	1r	.	1r
2E	2c	.	.	.
=28	=28	=28	=28	=28
2F	1A	0r	0r	0r
1C	.	.	.	.
.	2G	.	.	.
2C	[2c	.	.	.
=29	=29	=29	=29	=29
1F	2c]	0r	2r	0r
.	2A	.	2c	.
2D	2B-y	.	2f	.
2D	2A	.	2f	.
=30	=30	=30	=30	=30
2F	2A	0r	2d	1r
2E	1c	.	2e	.
1D	.	.	2f	2r
.	2B-y	.	[2f	2f
=31	=31	=31	=31	=31
1C	2A	0r	2f]	2cc
.	2G	.	2e	2cc
1r	2r	.	1d	2a
.	2G	.	.	2b-y
=32	=32	=32	=32	=32
0r	2A	2r	2c	2cc
.	2F	2c	2A	1cc
.	1F	2f	2A	.
.	.	2f	2A	2cc
=33	=33	=33	=33	=33
1r	1G	2d	1B-y	1b-y
.	.	2e	.	.
2r	2.F	1f	2c	2a
2F	.	.	[2c	2a
.	4G	.	.	.
=34	=34	=34	=34	=34
2F	2A	2r	2c]	2cc
2BB-y	2B-y	1f	2d	2b-y
1F	1c	.	2c	1a
.	.	2f	2A	.
=35	=35	=35	=35	=35
1C	2r	1e	1c	1g
.	1c	.	.	.
1r	.	2d	1G	[1g
.	2B-y	2d	.	.
=36	=36	=36	=36	=36
0r	2c	2e	1c	2g]
.	2A	2f	.	2a
.	1B-y	1d	2r	2f
.	.	.	[2f	2b-y
=37	=37	=37	=37	=37
1r	1F	1c	1f]	1a
[1C	1r	2r	2e	1g
.	.	[2e	[2c	.
=38	=38	=38	=38	=38
2C]	2r	2e]	2c]	0r
2D	1F	2f	4B-y	.
.	.	.	4A	.
2BB-y	.	2d	2B-y	.
2E-i	2G	2c	2c	.
=39	=39	=39	=39	=39
1D	2A	1f	1d	1r
.	2B-y	.	.	.
[1C	2c	1e	1G	2r
.	[2c	.	.	[2g
=40	=40	=40	=40	=40
1C]	2c]	1r	2r	2g]
.	2e	.	1c	2g
1r	1d	2r	.	2a
.	.	[2f	2B-y	2b-y
=41	=41	=41	=41	=41
2r	0c	2f]	2A	2cc
1C	.	2e	2A	1cc
.	.	2e	2G	.
2C	.	2e	[2A	2cc
=42	=42	=42	=42	=42
2D	1r	2f	2A]	1b-y
2E	.	4e	2G	.
.	.	4d	.	.
2F	2r	2c	2.A	[1a
[2A	2F	2f	.	.
.	.	.	4B-y	.
=43	=43	=43	=43	=43
2A]	1A	2e	2c	1a]
2F	.	2.f	1d	.
1G	1B-y	.	.	1r
.	.	4e	.	.
.	.	4e	4c	.
.	.	8dL	4B-y	.
.	.	8eJ	.	.
=44	=44	=44	=44	=44
0F	1c	1f	1A	0r
.	2r	[1c	2r	.
.	[2F	.	[2A	.
=45	=45	=45	=45	=45
1C	2F]	2c]	2A]	2r
.	2E	2c	2G	1cc
1r	2F	2d	2A	.
.	2G	2e	2B-y	2b-y
=46	=46	=46	=46	=46
1r	4F	2.f	1c	2a
.	4G	.	.	.
.	4A	.	.	2a
.	4B-y	8eL	.	.
.	.	8dJ	.	.
2r	2.c	2e	2r	2g
[2F	.	2f	[2c	2a
.	4B-y	.	.	.
=47	=47	=47	=47	=47
2F]	2A	2c	2c]	2a
2C	2G	2.g	2e	2.cc
1G	2r	.	1d	.
.	.	4f	.	8bniL
.	.	.	.	8aJ
.	[2G	2d	.	2bni
=48	=48	=48	=48	=48
1C	2G]	2e	[0c	2.cc
.	2E	2.g	.	.
.	.	.	.	4b-y
1r	1F	.	.	1a
.	.	4f	.	.
.	.	[2f	.	.
=49	=49	=49	=49	=49
0r	0G	2f]	0c]	2r
.	.	4e	.	1g
.	.	4d	.	.
.	.	1e	.	.
.	.	.	.	[2cc
=50	=50	=50	=50	=50
1F	2r	1c	1A	2cc]
.	2A	.	.	2a
2D	2A	1f	1d	2f
2BB-y	2B-y	.	.	[2b-y
=51	=51	=51	=51	=51
2F	2c	2f	2c	4b-]
.	.	.	.	4a
2F	1d	2f	2A	1a
1G	.	2.d	2B-y	.
.	2B-y	.	2B-y	2g
.	.	4e	.	.
=52	=52	=52	=52	=52
1F	0c	1f	1A	[0a
1r	.	1f	1F	.
=53	=53	=53	=53	=53
2r	1c	2e	2A	1a]
2F	.	2f	2A	.
2G	2B-y	2d	2G	1r
2C	2c	2e	2G	.
=54	=54	=54	=54	=54
2D	2.A	1f	2F	2r
2D	.	.	1f	1a
.	4B-y	.	.	.
1C	1c	1r	.	.
.	.	.	2e	2g
=55	=55	=55	=55	=55
0r	0r	1r	2f	2a
.	.	.	2d	2b-y
.	.	2r	2e	2g
.	.	2F	[2f	[2a
=56	=56	=56	=56	=56
0r	0r	2F	2f]	2a]
.	.	2G	4e	4g
.	.	.	4d	4f
.	.	2A	1c	2e
.	.	2F	.	[2a
=57	=57	=57	=57	=57
1F	0r	2.c	1A	2a]
.	.	.	.	2.cc
.	.	8B-yL	.	.
.	.	8AJ	.	.
2E	.	2G	1c	.
.	.	.	.	4b-y
2F	.	2c	.	[2a
=58	=58	=58	=58	=58
2D	0r	2d	1B-y	2a]
2E	.	2G	.	2g
2.F	.	1c	2A	1a
.	.	.	2F	.
8EL	.	.	.	.
8DJ	.	.	.	.
=59	=59	=59	=59	=59
2C	2r	1.c	2G	0r
2FF	1F	.	2A	.
1C	.	.	2G	.
.	2E	2c	[2A	.
=60	=60	=60	=60	=60
1BB-y	2F	1d	2A]	1r
.	2D	.	2G	.
1AA	2E	1c	2.A	2r
.	[2F	.	.	2a
.	.	.	4B-y	.
=61	=61	=61	=61	=61
0r	4F]	1f	2c	2a
.	4G	.	.	.
.	4A	.	1c	2a
.	4B-y	.	.	.
.	2c	2e	.	2g
.	2A	[2f	2c	[2a
=62	=62	=62	=62	=62
0r	2B-y	2f]	1d	2a]
.	2B-y	2d	.	2g
.	2A	2e	[1c	2.a
.	2F	[2A	.	.
.	.	.	.	4b-y
=63	=63	=63	=63	=63
1FF	2F	4A]	1c]	2cc
.	.	4G	.	.
.	2F	4A	.	1cc
.	.	4B-y	.	.
1AA	2E	2c	1r	.
.	[2F	2A	.	2cc
=64	=64	=64	=64	=64
1GG	2F]	2.B-y	1r	1b-y
.	2E	.	.	.
.	.	4c	.	.
[1FF	2.F	2d	2r	[1a
.	.	2c	2f	.
.	4G	.	.	.
=65	=65	=65	=65	=65
1FF]	2A	2r	2f	0a]
.	1A	2c	2f	.
1r	.	2c	2e	.
.	2A	2c	[2f	.
=66	=66	=66	=66	=66
2r	1G	2BnX	2f]	0r
2C	.	1c	2e	.
2D	1F	.	2f	.
2D	.	2Bni	2d	.
=67	=67	=67	=67	=67
2C	0r	2.c	1e	1.g
1C	.	.	.	.
.	.	4d	.	.
.	.	2e	1c	.
2C	.	[2e	.	2g
=68	=68	=68	=68	=68
2.C	2r	2e]	2G	2.g
.	1G	2e	2.c	.
4C	.	.	.	4a
1GG	.	1d	.	2b-y
.	.	.	8B-yL	.
.	.	.	8AJ	.
.	2D	.	2B-y	2g
=69	=69	=69	=69	=69
1r	2.F	[0c	2c	2.a
.	.	.	1A	.
.	4G	.	.	8gL
.	.	.	.	8fJ
2r	2A	.	.	2e
[2FF	[2A	.	2F	2f
=70	=70	=70	=70	=70
2FF]	2A]	0c]	2F	2c
2FF	2A	.	2.c	2.f
1C	1G	.	.	.
.	.	.	4B-y	4e
.	.	.	2G	4e
.	.	.	.	8dL
.	.	.	.	8eJ
=71	=71	=71	=71	=71
1FF	1F	2r	1A	0f
.	.	2c	.	.
1FF	1A	2F	1c	.
.	.	[2f	.	.
=72	=72	=72	=72	=72
1C	1G	4f]	1c	0r
.	.	8eL	.	.
.	.	8dJ	.	.
.	.	2e	.	.
[1D	[1F	1f	2A	.
.	.	.	[2B-y	.
=73	=73	=73	=73	=73
2D]	2F]	0r	4B-]	0r
.	.	.	4A	.
2C	2E	.	1A	.
1BB-y	1D	.	.	.
.	.	.	2G	.
=74	=74	=74	=74	=74
1AA	2E	2r	2.A	0r
.	2A	2c	.	.
.	.	.	8GL	.
.	.	.	8FJ	.
1C	2A	1c	1E	.
.	[2G	.	.	.
=75	=75	=75	=75	=75
2BB-y	4G]	2d	0r	2r
.	4F	.	.	.
2AA	1F	2c	.	2c
1GG	.	1B-y	.	1g
.	2E	.	.	.
=76	=76	=76	=76	=76
1FF	1.F	2.A	2r	1.a
.	.	.	2c	.
.	.	4G	.	.
1r	.	2F	1c	.
.	2E	2G	.	2g
=77	=77	=77	=77	=77
2r	1D	2A	1d	1f
2BB-y	.	2B-y	.	.
2C	1r	1G	2c	2e
2E-X	.	.	[2B-y	[2g
=78	=78	=78	=78	=78
1D	1r	1d	2B-]	2g]
.	.	.	2A	2f
2C	1G	1r	2c	2e
2GG	.	.	[2B-y	[2d
=79	=79	=79	=79	=79
2BB-y	2F	1r	2B-]	2d]
2C	2E	.	2A	1c
1GG	1D	2r	[1G	.
.	.	2d	.	2Bni
=80	=80	=80	=80	=80
1C	2C	2e	1G]	0c
.	2G	2e	.	.
1FF	2A	1f	1F	.
.	2A	.	.	.
=81	=81	=81	=81	=81
0r	1B-y	2d	2r	1f
.	.	2d	1B-y	.
.	2G	2d	.	2g
.	2c	2e	2c	2g
=82	=82	=82	=82	=82
1F	2A	2.f	2c	1a
.	2A	.	1d	.
.	.	4e	.	.
2G	1B-y	4d	.	1g
.	.	4c	.	.
2G	.	2d	2B-y	.
=83	=83	=83	=83	=83
1A	1F	2c	2r	2r
.	.	1f	2c	2f
1G	1B-y	.	2d	2g
.	.	2e	2B-y	2g
=84	=84	=84	=84	=84
1F	1A	2f	1c	2.a
.	.	1c	.	.
.	.	.	.	4g
2F	1r	.	1A	4f
.	.	.	.	4e
2D	.	2d	.	2f
=85	=85	=85	=85	=85
2A	0r	2e	1c	2e
2A	.	1f	.	1a
1B-y	.	.	1d	.
.	.	[2d	.	2g
=86	=86	=86	=86	=86
1A	2r	2d]	1e	1a
.	1A	2c#i	.	.
1D	.	1d	1f	2r
.	2A	.	.	[2a
=87	=87	=87	=87	=87
2D	2B-y	0r	2f	2a]
2E	1c	.	2e	2g
1F	.	.	2c	2.a
.	[2A	.	[2d	.
.	.	.	.	8gL
.	.	.	.	8fJ
=88	=88	=88	=88	=88
2E	2A]	1r	2d]	1g
2E	2G	.	2c#i	.
1D	1A	2r	2d	2f
.	.	[2d	[2f	[2a
=89	=89	=89	=89	=89
1AA	2r	2d]	2f]	2a]
.	1A	2c	4e	2cc
.	.	.	4d	.
1r	.	2f	2c	2cc
.	2B-y	2f	2d	[2b-y
=90	=90	=90	=90	=90
0r	2c	1e	1A	4b-]
.	.	.	.	4a
.	2c	.	.	1a
.	1B-y	2.d	2r	.
.	.	.	[2d	2g
.	.	4e	.	.
=91	=91	=91	=91	=91
1.D	1A	2f	2d]	2a
.	.	2F	2f	1a
.	1r	2A	2f	.
2E	.	[2c	[2e	2g
=92	=92	=92	=92	=92
2F	0r	4c]	4e]	2a
.	.	4B-y	4d	.
2F	.	1A	1d	2f
1E	.	.	.	1g
.	.	2G	2c#i	.
=93	=93	=93	=93	=93
2D	0r	2A	2d	2f
1F	.	1A	1c	1a
4E	.	2A	2d	4g
4D	.	.	.	4f
=94	=94	=94	=94	=94
2C	2r	2c	2e	2g
2FF	1F	2c	2c	2a
1BB-y	.	1B-y	1d	2b-y
.	2G	.	.	[2g
=95	=95	=95	=95	=95
1FF	2A	1A	0c	4g]
.	.	.	.	4f
.	2F	.	.	2.f
1C	1G	1r	.	.
.	.	.	.	8eL
.	.	.	.	8dJ
.	.	.	.	2e
=96	=96	=96	=96	=96
1FF	[0Fl	1.c	2r	[0fl
.	.	.	1A	.
2r	.	.	.	.
[2BB-y	.	2d	2B-y	.
=97	=97	=97	=97	=97
4BB-]	0F_	2B-y	2d	0f_
8AAL	.	.	.	.
8GGJ	.	.	.	.
2AA	.	2c	2c	.
1BB-y	.	1d	1B-y	.
=98	=98	=98	=98	=98
00FFl	00F]	00cl	00Al	00f]
==	==	==	==	==
*-	*-	*-	*-	*-
!!!system-decoration: [*]
!!!RDF**kern: i = editorial accidental
!!!RDF**kern: l = terminal long
!!!ENC: Benjamin Ory
!!!END: 2021/1/6
!!!EED: Benjamin Ory
!!!EEV: 2021/04/30
!!!YEC: Copyright 2021 Benjamin Ory, All Rights Reserved
!!!ONB: Translated from MusicXML on 2021/04/30
